svg/300/rounded/tv_with_assistant-fill.svg

<svg xmlns="http://www.w3.org/2000/svg" width="48" height="48" viewBox="0 -960 960 960"><path d="M420-464.616q14.692 0 25.038-10.346T455.384-500q0-14.692-10.346-25.038T420-535.384q-14.692 0-25.038 10.346T384.616-500q0 14.692 10.346 25.038T420-464.616Zm120 0q14.692 0 25.038-10.346T575.384-500q0-14.692-10.346-25.038T540-535.384q-14.692 0-25.038 10.346T504.616-500q0 14.692 10.346 25.038T540-464.616Zm-240 0q14.692 0 25.038-10.346T335.384-500q0-14.692-10.346-25.038T300-535.384q-14.692 0-25.038 10.346T264.616-500q0 14.692 10.346 25.038T300-464.616Zm360 0q14.692 0 25.038-10.346T695.384-500q0-14.692-10.346-25.038T660-535.384q-14.692 0-25.038 10.346T624.616-500q0 14.692 10.346 25.038T660-464.616ZM221.923-220.001l-22.461 63.537q-1.167 2.737-3.423 4.215-2.256 1.478-4.882 1.478h-2.362q-3.517 0-6.348-2.87-2.831-2.869-2.831-6.438v-59.922h-21.922q-23.5 0-40.596-17.097-17.097-17.096-17.097-40.596v-444.612q0-23.5 17.097-40.596 17.096-17.097 40.596-17.097h644.612q23.5 0 40.596 17.097 17.097 17.096 17.097 40.596v444.612q0 23.523-17.097 40.635-17.096 17.112-40.596 17.112h-21.922v60.868q0 3.68-2.303 5.994-2.302 2.314-5.966 2.314h-3.192q-3 0-5.116-1.607-2.115-1.606-2.653-4.47l-21.693-63.153H221.923Z"/></svg>

<svg xmlns="http://www.w3.org/2000/svg" width="48" height="48" viewBox="0 -960 960 960"><path d="M420-464.62q14.69 0 25.04-10.34 10.34-10.35 10.34-25.04t-10.34-25.04q-10.35-10.34-25.04-10.34t-25.04 10.34q-10.34 10.35-10.34 25.04t10.34 25.04q10.35 10.34 25.04 10.34Zm120 0q14.69 0 25.04-10.34 10.34-10.35 10.34-25.04t-10.34-25.04q-10.35-10.34-25.04-10.34t-25.04 10.34q-10.34 10.35-10.34 25.04t10.34 25.04q10.35 10.34 25.04 10.34Zm-240 0q14.69 0 25.04-10.34 10.34-10.35 10.34-25.04t-10.34-25.04q-10.35-10.34-25.04-10.34t-25.04 10.34q-10.34 10.35-10.34 25.04t10.34 25.04q10.35 10.34 25.04 10.34Zm360 0q14.69 0 25.04-10.34 10.34-10.35 10.34-25.04t-10.34-25.04q-10.35-10.34-25.04-10.34t-25.04 10.34q-10.34 10.35-10.34 25.04t10.34 25.04q10.35 10.34 25.04 10.34ZM221.92-220l-22.46 63.54q-1.16 2.73-3.42 4.21t-4.88 1.48h-2.36q-3.52 0-6.35-2.87-2.83-2.87-2.83-6.44V-220h-21.93q-23.5 0-40.59-17.1-17.1-17.09-17.1-40.59v-444.62q0-23.5 17.1-40.59 17.09-17.1 40.59-17.1h644.62q23.5 0 40.59 17.1 17.1 17.09 17.1 40.59v444.62q0 23.52-17.1 40.63-17.09 17.11-40.59 17.11h-21.93v60.87q0 3.68-2.3 5.99-2.3 2.32-5.97 2.32h-3.19q-3 0-5.11-1.61-2.12-1.6-2.66-4.47L739.46-220H221.92Z"/></svg>
